packages/dnb-ui-lib/assets/icons/restaurant_medium.svg

<svg width="25" height="24" viewBox="0 0 25 24" fill="none" xmlns="http://www.w3.org/2000/svg">
<path d="M1.5 22.5002C1.5 22.9144 1.83579 23.2502 2.25 23.2502C2.66421 23.2502 3 22.9144 3 22.5002H1.5ZM23.2513 13.7502C23.6655 13.7502 24.0013 13.4144 24.0013 13.0002C24.0013 12.586 23.6655 12.2502 23.2513 12.2502V13.7502ZM20.9983 13.0002V12.2502H20.9983L20.9983 13.0002ZM20.4687 12.7812L19.9391 13.3123L20.4687 12.7812ZM20.2483 12.2522H19.4983L19.4983 12.2542L20.2483 12.2522ZM21.8073 1.96321L22.5002 2.25024L22.5003 2.25L21.8073 1.96321ZM23.2503 2.25021L22.5003 2.25V2.25021H23.2503ZM22.5003 22.5002C22.5003 22.9144 22.8361 23.2502 23.2503 23.2502C23.6645 23.2502 24.0003 22.9144 24.0003 22.5002H22.5003ZM1.5 1.50021C1.5 1.08599 1.16421 0.750207 0.75 0.750207C0.335786 0.750207 0 1.08599 0 1.50021H1.5ZM0.75 7.50021H0H0.75ZM4.5 1.50021C4.5 1.08599 4.16421 0.750207 3.75 0.750207C3.33579 0.750207 3 1.08599 3 1.50021H4.5ZM1.5 9.00021V22.5002H3V9.00021H1.5ZM23.2513 12.2502H20.9983V13.7502H23.2513V12.2502ZM20.9983 12.2502H20.9983L19.9391 13.3123C20.2203 13.5927 20.6012 13.7502 20.9983 13.7502L20.9983 12.2502ZM20.9983 12.2502H20.9983L19.4983 12.2542C19.4994 12.6513 19.6579 13.0318 19.9391 13.3123L20.9983 12.2502ZM20.9983 12.2522C20.9983 9.49014 20.9775 5.92609 22.5002 2.25024L21.1144 1.67617C19.4632 5.66232 19.4983 9.51027 19.4983 12.2522H20.9983ZM22.5003 2.25V2.25L21.793 0.927238C21.4869 1.09091 21.2471 1.35568 21.1143 1.67641L22.5003 2.25ZM22.5003 2.25H22.5003L22.7929 0.778817C22.4525 0.711107 22.0991 0.763561 21.793 0.927238L22.5003 2.25ZM22.5003 2.25V2.25L23.66 1.29856C23.4398 1.03021 23.1334 0.846528 22.7929 0.778817L22.5003 2.25ZM22.5003 2.25L22.5003 2.25L24.0003 2.25041C24.0004 1.9033 23.8801 1.5669 23.66 1.29856L22.5003 2.25ZM22.5003 2.25021V22.5002H24.0003V2.25021H22.5003ZM0 1.50021V7.50021H1.5V1.50021H0ZM0 7.50021C0 8.09694 0.237053 8.66924 0.65901 9.0912L1.71967 8.03054C1.57902 7.88988 1.5 7.69912 1.5 7.50021H0ZM0.65901 9.0912C1.08097 9.51315 1.65326 9.75021 2.25 9.75021V8.25021C2.05109 8.25021 1.86032 8.17119 1.71967 8.03054L0.65901 9.0912ZM2.25 9.75021C2.84674 9.75021 3.41903 9.51315 3.84099 9.0912L2.78033 8.03054C2.63968 8.17119 2.44891 8.25021 2.25 8.25021V9.75021ZM3.84099 9.0912C4.26295 8.66924 4.5 8.09694 4.5 7.50021H3C3 7.69912 2.92098 7.88988 2.78033 8.03054L3.84099 9.0912ZM4.5 7.50021V1.50021H3V7.50021H4.5ZM17.25 15.5002C17.25 18.6758 14.6756 21.2502 11.5 21.2502V22.7502C15.5041 22.7502 18.75 19.5043 18.75 15.5002H17.25ZM11.5 21.2502C8.32436 21.2502 5.75 18.6758 5.75 15.5002H4.25C4.25 19.5043 7.49594 22.7502 11.5 22.7502V21.2502ZM5.75 15.5002C5.75 12.3246 8.32436 9.75021 11.5 9.75021V8.25021C7.49594 8.25021 4.25 11.4961 4.25 15.5002H5.75ZM11.5 9.75021C14.6756 9.75021 17.25 12.3246 17.25 15.5002H18.75C18.75 11.4961 15.5041 8.25021 11.5 8.25021V9.75021Z" fill="black"/>
</svg>

<svg width="24" height="24" viewBox="0 0 25 24" fill="none" xmlns="http://www.w3.org/2000/svg"><path d="M1.5 22.5a.75.75 0 001.5 0H1.5zm21.751-8.75a.75.75 0 000-1.5v1.5zM20.998 13v-.75.75zm-.53-.219l-.529.531.53-.53zm-.22-.529h-.75v.002l.75-.002zm1.56-10.289l.692.287-.693-.287zm1.442.287h-.75.75zM22.5 22.5a.75.75 0 001.5 0h-1.5zm-21-21a.75.75 0 10-1.5 0h1.5zm-.75 6H0h.75zm3.75-6a.75.75 0 10-1.5 0h1.5zM1.5 9v13.5H3V9H1.5zm21.751 3.25h-2.253v1.5h2.253v-1.5zm-2.253 0l-1.059 1.062a1.5 1.5 0 001.06.438v-1.5zm0 0l-1.5.004a1.5 1.5 0 00.441 1.058L21 12.25zm0 .002c0-2.762-.02-6.326 1.502-10.002l-1.386-.574c-1.65 3.986-1.616 7.834-1.616 10.576h1.5zM22.5 2.25L21.793.927a1.5 1.5 0 00-.679.75l1.386.573zm0 0l.293-1.471a1.5 1.5 0 00-1 .148L22.5 2.25zm0 0l1.16-.951a1.5 1.5 0 00-.867-.52L22.5 2.25zm0 0H24a1.5 1.5 0 00-.34-.951l-1.16.951zm0 0V22.5H24V2.25h-1.5zM0 1.5v6h1.5v-6H0zm0 6c0 .597.237 1.17.659 1.591l1.06-1.06A.75.75 0 011.5 7.5H0zm.659 1.591a2.25 2.25 0 001.591.66v-1.5a.75.75 0 01-.53-.22L.659 9.09zm1.591.66a2.25 2.25 0 001.591-.66l-1.06-1.06a.75.75 0 01-.531.22v1.5zm1.591-.66a2.25 2.25 0 00.659-1.59H3a.75.75 0 01-.22.53l1.061 1.06zm.659-1.59v-6H3v6h1.5zm12.75 8a5.75 5.75 0 01-5.75 5.75v1.5a7.25 7.25 0 007.25-7.25h-1.5zm-5.75 5.75a5.75 5.75 0 01-5.75-5.75h-1.5a7.25 7.25 0 007.25 7.25v-1.5zM5.75 15.5a5.75 5.75 0 015.75-5.75v-1.5a7.25 7.25 0 00-7.25 7.25h1.5zm5.75-5.75a5.75 5.75 0 015.75 5.75h1.5a7.25 7.25 0 00-7.25-7.25v1.5z" fill="#000"/></svg>
